X:136
T:AIR XLVI. Wap at the Widow, my Laddie.
O:england
B:Joseph Mitchell: "The Highland Fair" (1731)
M:6/8
L:1/8
K:Amix
D|F>EF (D/E/F)D|(EA,)F E2D|F>EF (DFD)|(EF)G d2e|c>BA  BAF    |dAF E2D|F>EF DFD|F3 A2||
A|d>ef  efd    | eBf   e2d|d>ef (ef)d| c>BA d2e|c>BA (F/G/A)B|AFd E2D|d>cd AdD|F3 A2|]


